X:1
T:Easter Bells
T:Easter Bells
T:George Crawford Hugg
T:F. E. Pettingell, 1886
T:Public Domain Courtesy of the Cyber Hymnal™
T:Public Domain Courtesy of the Cyber Hymnal™
C:George Crawford Hugg
Z:Public Domain
Z:Courtesy of the Cyber Hymnal™
%%score ( 1 2 ) ( 3 4 )
L:1/8
Q:1/4=100
M:4/4
K:G
V:1 treble 
V:2 treble 
V:3 bass 
V:4 bass 
V:1
 [Gd]2 [GB]>[Gc] [Gd]2 [DG]2 | ([Ac]2 [GB]2) [FA]4 | [GB]>[Gc] [Gd]>[Ge] [Fd]2 [G^c]2 | [Fd]6 z2 | %4
w: 1.~Ring, bells, ring out the|sto- * ry|Of our ris- en Lord and|king;|
w: 2.~Ring, bells, in joy- ous|cho- * rus,|Give the wait- ing na- tions|cheer;|
w: 3.~Ring, bells your sweet- est|mu- * sic,|Christ our king as- cends on|high;|
w: 4.~Ring, bells, He ev- er|liv- * eth,|Lives and reigns with God a-|bove;|
 [Gd]2 [GB]>[Gc] [Gd]2 [DG]2 | ([Ac]2 [GB]2) [FA]4 | [DG]>[FA] [GB]>[Gc] [GB]2 [FA]2 | G6 z2 || %8
w: He hath des- poiled the|spoil- * er,|Glad- ly now His prais- es|ring.|
w: Join all our hearts and|voic- * es,|Christ is ris- en, do not|fear.|
w: A- gain in clouds He|com- * eth,|Je- sus lives, and death shall|die.|
w: Ring loud and clear His|tri- * umphs,|God is mer- cy, God is|love.|
"^Refrain" ([GB]2 d<d') ([GB]2 d<d') | [GB]2 [Fc]2 [Gd]2 z2 | ([FA]2 d<d') ([FA]2 d<d') | %11
w: |||
w: |||
w: Ring! * * ring! * *|Eas- ter bells!|Ring! * * ring! * *|
w: |||
 [GB]2 [G^c]2 ([Fd]2 [A=c]2) | ([GB]2 d<d') ([GB]2 d<d') | [Gc]2 [Gd]2 [Ge][Gd][Gc][GB] | %14
w: |||
w: |||
w: Eas- ter bells! *|Ring! * * ring! * *|Sweet- est prais- es to our|
w: |||
 ([FA]2 d<d') ([^E^G]2 d<d') | ([FA]2 d<d'd<d'd<d') | ([GB]2 d<d') ([GB]2 d<d') | %17
w: |||
w: |||
w: ris- * * en * *|king; * * * * * *|Ring! * * ring! * *|
w: |||
 [GB]2 [Fc]2 [Gd]2 z2 | ([GB]2 g<g') ([Gc]2 g<g') | ([G^c]2 g<g') ([Gd]2 g<g') | %20
w: |||
w: |||
w: Eas- ter bells!|Ring! * * ring! * *|ring! * * ring! * *|
w: |||
 [CF]2 [CA]2 [Dd][Dc][DB][DA] | ([B,G]2 g<g' g4) |] %22
w: ||
w: ||
w: Prais- es to our ris- en|king! * * *|
w: ||
V:2
 x8 | x8 | x8 | x8 | x8 | x8 | x8 | G6 x2 || x8 | x8 | x8 | x8 | x8 | x8 | x8 | x8 | x8 | x8 | x8 | %19
 x8 | x8 | x8 |] %22
V:3
 [G,B,]2 [G,D]>[G,C] [G,B,]2 [G,B,]2 | ([F,D]2 [G,D]2) [D,D]4 | %2
 [G,D]>[G,C] [G,B,]>[G,C] A,2 [A,,E]2 | [D,D]6 z2 | [G,B,]2 [G,D]>[G,C] [G,B,]2 [G,B,]2 | %5
 ([F,D]2 [G,D]2) [D,D]4 | [G,B,]>[D,D] [G,D]>[C,E] [D,D]2 [D,C]2 | [G,B,]6 z2 || %8
 [G,D]2 z2 [G,D]2 z2 | [G,D]2 [A,D]2 [B,D]2 z2 | [D,C]2 z2 [D,C]2 z2 | [G,D]2 A,2 (A,2 D2) | %12
 [G,D]2 z2 [=F,D]2 z2 | [E,C]2 [D,B,]2 [C,C][B,,D][A,,E][G,,D] | [D,D]2 z2 [D,B,]2 z2 | [D,D]2 z6 | %16
 [G,D]2 z2 [G,D]2 z2 | [G,D]2 [A,D]2 [B,D]2 z2 | [=F,D]2 z2 [E,C]2 z2 | [_G,_B,]2 z2 [D,=B,]2 z2 | %20
 [D,A,]2 [D,F,]2 [D,B,][D,A,][D,G,][D,F,] | G,2 z6 |] %22
V:4
 x8 | x8 | x4 A,2 x2 | x8 | x8 | x8 | x8 | x8 || x8 | x8 | x8 | x2 A,2 D,4 | x8 | x8 | x8 | x8 | %16
 x8 | x8 | x8 | x8 | x8 | x8 |] %22

